X: 0814
T: GIBSON'S REEL
B: Oliver Ditson "The Boston Collection of Instrumental Music" 1910 p.81 #4
F: http://conquest.imslp.info/files/imglnks/usimg/8/8f/IMSLP175643-PMLP309456-bostoncollection00bost_bw.pdf
%: 2012 John Chambers <jc:trillian.mit.edu>
M: 2/4
L: 1/16
K: D
FG |\
Adcd fdcd | adcd fdcd | Adcd fdcd | g2e2e2 FG |\
Adcd fdcd | adcd fdcd | ABcd efge | f2d2d2 :|
|: f>g |\
a3b afge | dcde f2e2 | edcd Adfa | g2e2e2 fg |\
a3b afge | dcde f2e2 | edcd BAGE | A2D2D2 :|

%%sep 1 1 500
%%sep 1 1 500
